X: 64
M: C|
L: 1/16
K: Em
EG3G3A B3AG3e | dB3A3F E4 E2 :|
|: ef |\
ge3e3f g3ee3b | g3e dcBA d4 d2ef |\
ge3e3f g3e e2Bd | e3B^d3F E4 E3F |
E3FG3A B3AG3e | d3BA3F E4 E2 H:|

